X:122
T:Polska efter Ankarloo
T:(SvL Skne nr. 122)
R:Polska
B:Svenska Ltar Skne
Z:Patrik Mnsson, 2008-12-28
O:Nsum, Skne
S:efter Johan Ankarloo
N:Polskan uppgavs vara komponerad av Ankarloos lrare i musik, dvarande organisten i Jmshg, sedermera klockaren i Vankiva och Ignaberga frsamlingar, Fr. Lindkvist. (SvL Sk nr.122)
D:Inspelad av Brderna Mathias och Tommy Lundgren som lt nr 17 p Gingemusickanternas skiva "Det dansar en Ging 2" (2007)
M:3/4
L:1/16
Q:1/4=100
K:C
|: c3C E2G2 c2e2 | d3G B2d2 f2a2 | g2gf e2c'2  c2e2 | dcBc dcBA G2G2 |
   c3C E2G2 c2e2 | d3G B2d2 f2a2 | g2gf e2c'2  c2e2 | g2fd B4 c4 :|
|: gagf e2ef g2e2 | fgfe d2de f2d2 | efed c2c'2 c2e2 | dcBc dcBA G4 |
   gagf e2ef g2e2 | fgfe d2de f2d2 | efed c2c'2 c2e2 | g2fd B4 c4 :|
